build/img/sprites/PenNib.svg

<svg width="24" height="24" viewBox="0 0 24 24" fill="none" xmlns="http://www.w3.org/2000/svg">
<path d="M23.25 8.68873C23.2506 8.49167 23.212 8.29646 23.1366 8.11443C23.0611 7.93241 22.9502 7.7672 22.8103 7.62842L16.3715 1.18873C16.2322 1.0494 16.0669 0.938885 15.8849 0.863481C15.7028 0.788078 15.5078 0.749268 15.3107 0.749268C15.1137 0.749268 14.9187 0.788078 14.7366 0.863481C14.5546 0.938885 14.3893 1.0494 14.25 1.18873L11.5847 3.85404L6.14715 5.89498C5.90003 5.98714 5.68146 6.1426 5.51331 6.34579C5.34516 6.54899 5.23333 6.79279 5.18903 7.05279L3.01028 20.1262C2.9923 20.2337 2.99795 20.3438 3.02685 20.4488C3.05574 20.5539 3.10717 20.6514 3.17758 20.7346C3.24798 20.8177 3.33566 20.8846 3.43451 20.9304C3.53336 20.9762 3.64101 21 3.74997 21C3.79142 20.9998 3.8328 20.9964 3.87372 20.9897L16.9462 18.8109C17.2059 18.7676 17.4496 18.6567 17.6528 18.4893C17.8561 18.3219 18.0117 18.104 18.104 17.8575L20.145 12.42L22.8103 9.74998C22.9502 9.61105 23.0612 9.44569 23.1367 9.2635C23.2122 9.08131 23.2507 8.88593 23.25 8.68873ZM16.6997 17.3315L5.93622 19.125L10.3772 14.684C10.9318 14.9838 11.5759 15.0739 12.1915 14.9379C12.8072 14.8019 13.3533 14.4488 13.73 13.9433C14.1068 13.4377 14.289 12.8135 14.2433 12.1846C14.1977 11.5558 13.9272 10.9644 13.4814 10.5186C13.0356 10.0727 12.4442 9.80227 11.8153 9.75661C11.1865 9.71096 10.5622 9.89316 10.0567 10.2699C9.55111 10.6467 9.19805 11.1928 9.06203 11.8084C8.92602 12.4241 9.01613 13.0681 9.3159 13.6228L4.87497 18.0656L6.6684 7.29935L11.8125 5.37092L18.6281 12.1875L16.6997 17.3315ZM10.5 12.375C10.5 12.1525 10.5659 11.935 10.6896 11.75C10.8132 11.565 10.9889 11.4208 11.1944 11.3356C11.4 11.2505 11.6262 11.2282 11.8444 11.2716C12.0627 11.315 12.2631 11.4221 12.4205 11.5795C12.5778 11.7368 12.6849 11.9373 12.7284 12.1555C12.7718 12.3737 12.7495 12.5999 12.6643 12.8055C12.5792 13.0111 12.435 13.1868 12.25 13.3104C12.065 13.434 11.8475 13.5 11.625 13.5C11.3266 13.5 11.0405 13.3815 10.8295 13.1705C10.6185 12.9595 10.5 12.6733 10.5 12.375ZM19.5 10.9387L13.0603 4.49998L15.3103 2.24998L21.75 8.68873L19.5 10.9387Z" fill="white"/>
</svg>

<svg width="24" height="24" viewBox="0 0 24 24" fill="none" xmlns="http://www.w3.org/2000/svg"><path d="M23.25 8.689a1.489 1.489 0 00-.44-1.06l-6.438-6.44a1.5 1.5 0 00-2.122 0l-2.665 2.665-5.438 2.041a1.506 1.506 0 00-.958 1.158L3.01 20.126a.75.75 0 00.864.864l13.072-2.18a1.499 1.499 0 001.158-.952l2.041-5.438 2.665-2.67a1.49 1.49 0 00.44-1.061zM16.7 17.33L5.936 19.125l4.441-4.441a2.625 2.625 0 10-1.061-1.061l-4.441 4.443L6.668 7.299l5.144-1.928 6.816 6.816-1.928 5.144zm-6.2-4.956a1.124 1.124 0 112.249 0 1.124 1.124 0 01-2.249 0zm9-1.436L13.06 4.5l2.25-2.25 6.44 6.439-2.25 2.25z" fill="#fff"/></svg>
